public/images/shadow-story.svg

<svg xmlns="http://www.w3.org/2000/svg" width="1503" height="1503" fill="none" xmlns:v="https://vecta.io/nano"><g opacity=".6" fill-opacity=".25" fill="url(#A)"><path d="M1503 634.806v234.711L789.842 752.161 1503 634.806z"/><path d="M0 633.483v234.711l713.158-117.355L0 633.483z"/><path d="M634.806 0h234.71L752.161 713.16 634.806 0z"/><path d="M633.484 1503h234.71L750.839 789.84 633.484 1503z"/><path d="M1026.19 42.333l203.26 117.356-458.208 558.937L1026.19 42.333z"/><path d="M273.546 1343.31l203.265 117.36 254.946-676.296-458.211 558.936z"/><path d="M1343.97 274.682l117.35 203.265-676.286 254.947 558.936-458.212z"/><path d="M41.675 1025.04l117.356 203.27 558.935-458.213L41.675 1025.04z"/><path d="M1228.31 1343.96l-203.26 117.36-254.949-676.294 458.209 558.934z"/><path d="M477.952 41.663L274.687 159.019l458.212 558.937L477.952 41.663z"/><path d="M1460.67 1026.17l-117.36 203.27-558.934-458.215 676.294 254.945z"/><path d="M159.687 273.536L42.332 476.801l676.291 254.947-558.936-458.212z"/></g><defs><radialGradient id="A" cx="0" cy="0" r="1" gradientTransform="matrix(-514.8 485.945 -485.944 -514.801 751.5 751.5)" gradientUnits="userSpaceOnUse"><stop offset=".609" stop-color="#fff"/><stop offset="1" stop-color="#fff" stop-opacity="0"/></radialGradient></defs></svg>

<svg width="1503" height="1503" viewBox="0 0 1503 1503" fill="none" xmlns="http://www.w3.org/2000/svg">
<g opacity="0.6">
<path d="M1503 634.806L1503 869.517L789.842 752.161L1503 634.806Z" fill="url(#paint0_radial_142_17166)" fill-opacity="0.25"/>
<path d="M0.00021645 633.483L0.000206191 868.194L713.158 750.839L0.00021645 633.483Z" fill="url(#paint1_radial_142_17166)" fill-opacity="0.25"/>
<path d="M634.806 -2.76904e-05L869.516 -2.76904e-05L752.161 713.16L634.806 -2.76904e-05Z" fill="url(#paint2_radial_142_17166)" fill-opacity="0.25"/>
<path d="M633.484 1503L868.194 1503L750.839 789.84L633.484 1503Z" fill="url(#paint3_radial_142_17166)" fill-opacity="0.25"/>
<path d="M1026.19 42.3333L1229.45 159.689L771.242 718.626L1026.19 42.3333Z" fill="url(#paint4_radial_142_17166)" fill-opacity="0.25"/>
<path d="M273.546 1343.31L476.811 1460.67L731.757 784.374L273.546 1343.31Z" fill="url(#paint5_radial_142_17166)" fill-opacity="0.25"/>
<path d="M1343.97 274.682L1461.32 477.947L785.034 732.894L1343.97 274.682Z" fill="url(#paint6_radial_142_17166)" fill-opacity="0.25"/>
<path d="M41.6745 1025.04L159.03 1228.31L717.965 770.097L41.6745 1025.04Z" fill="url(#paint7_radial_142_17166)" fill-opacity="0.25"/>
<path d="M1228.31 1343.96L1025.05 1461.32L770.101 785.026L1228.31 1343.96Z" fill="url(#paint8_radial_142_17166)" fill-opacity="0.25"/>
<path d="M477.952 41.6633L274.687 159.019L732.899 717.956L477.952 41.6633Z" fill="url(#paint9_radial_142_17166)" fill-opacity="0.25"/>
<path d="M1460.67 1026.17L1343.31 1229.44L784.376 771.225L1460.67 1026.17Z" fill="url(#paint10_radial_142_17166)" fill-opacity="0.25"/>
<path d="M159.687 273.536L42.3323 476.801L718.623 731.748L159.687 273.536Z" fill="url(#paint11_radial_142_17166)" fill-opacity="0.25"/>
</g>
<defs>
<radialGradient id="paint0_radial_142_17166" cx="0" cy="0" r="1" gradientTransform="matrix(-514.8 485.945 -485.944 -514.801 751.5 751.5)" gradientUnits="userSpaceOnUse">
<stop offset="0.609317" stop-color="white"/>
<stop offset="1" stop-color="white" stop-opacity="0"/>
</radialGradient>
<radialGradient id="paint1_radial_142_17166" cx="0" cy="0" r="1" gradientTransform="matrix(-514.8 485.945 -485.944 -514.801 751.5 751.5)" gradientUnits="userSpaceOnUse">
<stop offset="0.609317" stop-color="white"/>
<stop offset="1" stop-color="white" stop-opacity="0"/>
</radialGradient>
<radialGradient id="paint2_radial_142_17166" cx="0" cy="0" r="1" gradientTransform="matrix(-514.8 485.945 -485.944 -514.801 751.5 751.5)" gradientUnits="userSpaceOnUse">
<stop offset="0.609317" stop-color="white"/>
<stop offset="1" stop-color="white" stop-opacity="0"/>
</radialGradient>
<radialGradient id="paint3_radial_142_17166" cx="0" cy="0" r="1" gradientTransform="matrix(-514.8 485.945 -485.944 -514.801 751.5 751.5)" gradientUnits="userSpaceOnUse">
<stop offset="0.609317" stop-color="white"/>
<stop offset="1" stop-color="white" stop-opacity="0"/>
</radialGradient>
<radialGradient id="paint4_radial_142_17166" cx="0" cy="0" r="1" gradientTransform="matrix(-514.8 485.945 -485.944 -514.801 751.5 751.5)" gradientUnits="userSpaceOnUse">
<stop offset="0.609317" stop-color="white"/>
<stop offset="1" stop-color="white" stop-opacity="0"/>
</radialGradient>
<radialGradient id="paint5_radial_142_17166" cx="0" cy="0" r="1" gradientTransform="matrix(-514.8 485.945 -485.944 -514.801 751.5 751.5)" gradientUnits="userSpaceOnUse">
<stop offset="0.609317" stop-color="white"/>
<stop offset="1" stop-color="white" stop-opacity="0"/>
</radialGradient>
<radialGradient id="paint6_radial_142_17166" cx="0" cy="0" r="1" gradientTransform="matrix(-514.8 485.945 -485.944 -514.801 751.5 751.5)" gradientUnits="userSpaceOnUse">
<stop offset="0.609317" stop-color="white"/>
<stop offset="1" stop-color="white" stop-opacity="0"/>
</radialGradient>
<radialGradient id="paint7_radial_142_17166" cx="0" cy="0" r="1" gradientTransform="matrix(-514.8 485.945 -485.944 -514.801 751.5 751.5)" gradientUnits="userSpaceOnUse">
<stop offset="0.609317" stop-color="white"/>
<stop offset="1" stop-color="white" stop-opacity="0"/>
</radialGradient>
<radialGradient id="paint8_radial_142_17166" cx="0" cy="0" r="1" gradientTransform="matrix(-514.8 485.945 -485.944 -514.801 751.5 751.5)" gradientUnits="userSpaceOnUse">
<stop offset="0.609317" stop-color="white"/>
<stop offset="1" stop-color="white" stop-opacity="0"/>
</radialGradient>
<radialGradient id="paint9_radial_142_17166" cx="0" cy="0" r="1" gradientTransform="matrix(-514.8 485.945 -485.944 -514.801 751.5 751.5)" gradientUnits="userSpaceOnUse">
<stop offset="0.609317" stop-color="white"/>
<stop offset="1" stop-color="white" stop-opacity="0"/>
</radialGradient>
<radialGradient id="paint10_radial_142_17166" cx="0" cy="0" r="1" gradientTransform="matrix(-514.8 485.945 -485.944 -514.801 751.5 751.5)" gradientUnits="userSpaceOnUse">
<stop offset="0.609317" stop-color="white"/>
<stop offset="1" stop-color="white" stop-opacity="0"/>
</radialGradient>
<radialGradient id="paint11_radial_142_17166" cx="0" cy="0" r="1" gradientTransform="matrix(-514.8 485.945 -485.944 -514.801 751.5 751.5)" gradientUnits="userSpaceOnUse">
<stop offset="0.609317" stop-color="white"/>
<stop offset="1" stop-color="white" stop-opacity="0"/>
</radialGradient>
</defs>
</svg>
